images_breeze_svg/cmd/32/ungroup.svg

<svg viewBox="0 0 32 32" xmlns="http://www.w3.org/2000/svg"><path d="m21 4v4 1h1 5 1v-4-1h-1-5zm-14 1v1 4h1v-4h11v-1zm15 0h5v3h-5zm-1 5v1 3 1h1 5 1v-4-1zm1 1h5v3h-5zm-1 5v4 1h1 5 1v-5h-1-5zm1 1h5v3h-5zm-15 5v4 1h12v-1h-11v-4zm14 0v1 3 1h1 5 1v-4-1zm1 1h5v3h-5z" fill="#4d4d4d"/><path d="m4.207031 12.5-.707031.707031 3.292969 3.292969-3.292969 3.292969c.0126.0252.707031.707031.707031.707031l3.292969-3.292969 3.292969 3.292969.707031-.707031-3.292969-3.292969 3.292969-3.292969-.707031-.707031-3.292969 3.292969z" fill="#da4453"/></svg>

<?xml version="1.0" encoding="UTF-8" standalone="no"?>
<svg
   xmlns:dc="http://purl.org/dc/elements/1.1/"
   xmlns:cc="http://creativecommons.org/ns#"
   xmlns:rdf="http://www.w3.org/1999/02/22-rdf-syntax-ns#"
   xmlns:svg="http://www.w3.org/2000/svg"
   xmlns="http://www.w3.org/2000/svg"
   xmlns:sodipodi="http://sodipodi.sourceforge.net/DTD/sodipodi-0.dtd"
   xmlns:inkscape="http://www.inkscape.org/namespaces/inkscape"
   viewBox="0 0 32 32"
   version="1.1"
   id="svg4"
   sodipodi:docname="ungroup.svg"
   inkscape:version="0.92.4 (unknown)"
   inkscape:export-filename="/home/rizmut/Dokumen/Rizmut/Github/libreoffice-style-breeze/images_breeze/cmd/32/ungroup.png"
   inkscape:export-xdpi="96"
   inkscape:export-ydpi="96">
  <metadata
     id="metadata10">
    <rdf:RDF>
      <cc:Work
         rdf:about="">
        <dc:format>image/svg+xml</dc:format>
        <dc:type
           rdf:resource="http://purl.org/dc/dcmitype/StillImage" />
        <dc:title></dc:title>
      </cc:Work>
    </rdf:RDF>
  </metadata>
  <defs
     id="defs8" />
  <sodipodi:namedview
     pagecolor="#ffffff"
     bordercolor="#666666"
     borderopacity="1"
     objecttolerance="10"
     gridtolerance="10"
     guidetolerance="10"
     inkscape:pageopacity="0"
     inkscape:pageshadow="2"
     inkscape:window-width="1360"
     inkscape:window-height="714"
     id="namedview6"
     showgrid="true"
     inkscape:zoom="10.429825"
     inkscape:cx="11.232777"
     inkscape:cy="14.030964"
     inkscape:window-x="0"
     inkscape:window-y="28"
     inkscape:window-maximized="1"
     inkscape:current-layer="svg4">
    <inkscape:grid
       type="xygrid"
       id="grid817" />
  </sodipodi:namedview>
  <path
     style="opacity:1;fill:#4d4d4d;fill-opacity:1;stroke:none;stroke-width:1.66403615;stroke-linecap:round;stroke-linejoin:round;stroke-miterlimit:4;stroke-dasharray:none;stroke-opacity:1"
     d="m 21,4 v 4 1 h 1 5 1 V 5 4 H 27 22 Z M 7,5 v 1 4 H 8 V 6 H 19 V 5 Z m 15,0 h 5 v 3 h -5 z m -1,5 v 1 3 1 h 1 5 1 v -4 -1 z m 1,1 h 5 v 3 h -5 z m -1,5 v 4 1 h 1 5 1 v -5 h -1 -5 z m 1,1 h 5 v 3 H 22 Z M 7,22 v 4 1 H 19 V 26 H 8 v -4 z m 14,0 v 1 3 1 h 1 5 1 v -4 -1 z m 1,1 h 5 v 3 h -5 z"
     id="rect819"
     inkscape:connector-curvature="0"
     sodipodi:nodetypes="ccccccccccccccccccccccccccccccccccccccccccccccccccccccccccccccccccccccccccccc" />
  <path
     inkscape:connector-curvature="0"
     style="fill:#da4453"
     d="M 4.207031,12.5 3.5,13.207031 6.792969,16.5 3.5,19.792969 C 3.5126,19.818169 4.207031,20.5 4.207031,20.5 L 7.5,17.207031 10.792969,20.5 11.5,19.792969 8.207031,16.5 11.5,13.207031 10.792969,12.5 7.5,15.792969 Z"
     id="path4-6" />
</svg>
